X: 1
T: Poll Ha'Penny
M: 4/4
L: 1/8
R: hornpipe
K: Dmix
AB | cAAG A2 (3AB^c | d=c AF G2 (3B^cd | ed^cA d^cAG |
ABAG ABde | ~f3d ~e3^c | d2 (3B^cd efge | aged ^cA G=c |
A2 AG A2 :||: ef | ~g3f gfef | g2ga gedg | eaag a2 ag |
eaa^g aba=g | ~f3d ~e3^c | d2 (3B^cd efge | aged ^cA G=c |
A2 AG A2 :|
